X:1
T:Dusty Miller [1]
L:1/8
M:C|
S:Jay Ungar
K:D
[D2D2] [D2D2] [D2F2] [DF][DF]|[G,2G2] B2 cBAG|E [=C2E2] [B,E] [C2E2]|=CDEG [FA] [D3A3]|
DEFD GAB[GB]|ABcA d2 (3ABc|dcdA BdAG|FDEF D4:|
|:ag|f [d2f2] c [d4f4]|fdfg abag|e [=c2e2] [Be] [c4e4]|=cdef g2 ag|
f d2 c deag|f d2 A BABc|d2 dA BdAG|FDEF D2:||

